X:345
T: Tuar Mr Polka #2
S: "Johnny O'Leary of Sliabh Luachra" (#88)
Z: B.Black
L: 1/8
M: 2/4
Q: 300
R: polka
K: D
A/B/|FA BA|de/e/ f2|g/f/e/f/ gB|ed Bd|
FG/A/ BA|de/e/ f2 g/f/e/f/ gB|ed d2 :|
ef/e/ ce|fe a2|e/f/g/e/ ce|fe cA|
e/f/g/e/ ce|fe a2|ef/e/ dB|c/B/A A2 :|
